X: 1
T:The Linus and Lucy Rag (Peanuts)
C:Vince Guaraldi
Z:by Tiamo/Skjald
L:1/4
Q:1/4=120
K:C
^F,3/8 ^C/4 ^F3/8 ^F,3/8 ^C3/8 ^F5/8 ^F,3/4 ^C/4 ^D3/8 ^F,3/8
^C3/8 ^D5/8 ^F,3/4 ^C/4 ^F3/8 ^F,3/8 ^C/4 z/8 ^F5/8 ^F,5/8 z/8 ^C/4
^D3/8 ^F,3/8 ^C/4 ^D3/4 [^f5/8^a5/8^F,5/8] [^c3/8^g3/8^C3/8]
[^f3/4^a3/4^F3/8] ^F,3/8 [^f/4^a/4^C/4] [^c3/8^g3/8^F3/4]
[^a3/4^f3/4z3/8] [^F,5/8z3/8] [^c^gz/4] ^C3/8 ^D3/8
[^a11/8^f11/8^F,3/8] ^C/4 ^D3/4 [^a5/8^f5/8^F,5/8] [^c3/8^g3/8^C3/8]
[^f3/4^a3/4^F3/8] ^F,3/8 [^f27/8^a27/8^C/4] ^F3/4 ^F,5/8 ^C3/8 ^D3/8
^F,/4 z/8 ^C/4 ^D3/4 [^a5/8^f5/8^F,5/8] [^c3/8^g3/8^C3/8]
[^f5/8^a5/8^F3/8] ^F,/4 [^f3/8^a3/8^C3/8] [^c3/8^g3/8^F3/4]
[^a5/8^f5/8z3/8] [^F,5/8z/4] [^c9/8^g9/8z3/8] ^C3/8 ^D3/8
[^a11/8^f11/8^F,/4] ^C3/8 ^D3/4 [^c11/8^f11/8A,5/8] E3/8 A3/8
[^c/4^g/4A,/4] [^c7/2^g7/2E3/8] A3/4 A,5/8 E3/8 ^F/4 z/8 A,/4 E3/8
^F5/8 z/8 [^a5/4^f5/4^F,5/8] ^C3/8 ^F/4 [^c3/8^g3/8^F,3/8]
[^c7/2^g7/2^C3/8] ^F5/8 ^F,3/4 ^C3/8 ^D/4 ^F,3/8 ^C3/8 ^D5/8
[^a3/4^f3/4^F,3/4] [^c3/8^g3/8^C3/8] [^f5/8^a5/8^F/4] ^F,3/8
[^f3/8^a3/8^C3/8] [^c3/8^g3/8^F5/8] [^a5/8^f5/8z/4] [^F,3/4z3/8]
[^c^gz3/8] ^C3/8 ^D/4 [^a11/8^f11/8^F,3/8] ^C3/8 ^D5/8
[^a3/4^f3/4^F,3/4] [^c/4^g/4^C/4] z/8 [^f5/8^a5/8^F/4] ^F,3/8
[^f27/8^a27/8^C3/8] ^F5/8 ^F,3/4 ^C/4 ^D3/8 ^F,3/8 ^C3/8 ^D5/8
[^a3/4^f3/4^F,3/4] [^c/4^g/4^C/4] [^f3/4^a3/4^F3/8] ^F,3/8
[^f3/8^a3/8^C3/8] [^c/4^g/4^F5/8] [^a3/4^f3/4z3/8] [^F,3/4z3/8]
[^c^gz3/8] ^C/4 ^D3/8 [^a11/8^f11/8^F,3/8] ^C3/8 ^D5/8
[^c11/8^f11/8A,5/8] z/8 E/4 A3/8 [^c3/8^g3/8A,3/8] [^c27/8^g27/8E/4]
z/8 A5/8 A,5/8 E3/8 ^F3/8 A,3/8 E/4 ^F3/4 [^a11/8^f11/8^F,5/8] ^C3/8
^F3/8 [^c3/8^g3/8^F,3/8] [^c27/8^g27/8^C/4] ^F3/4 ^F,5/8 ^C3/8 ^D3/8
^F,3/8 ^C/4 ^D3/4 [^f3/8^F,3/8] [B/4b/4^d/4^f/4B,/4]
[B3/8b3/8^d3/8^f3/8B,3/8] [B3/8b3/8^d3/8^f3/8B,3/8] [^c/4^f/4^C/4]
z3/8 [^c3/8^f3/8] ^d3/8 [^d/4^f/4] z/8 [^c/4^f/4] ^d3/8 [^d3/8^f3/8]
[^c/4^f/4] [^d3/8^f3/8] [^d3/8^f3/8] [^c5/8^f5/8z3/8] [^d/4^D/4]
[B3/8b3/8^d3/8^f3/8B,3/8] [B3/8b3/8^d3/8^f3/8B,3/8]
[B3/8b3/8^d3/8^f3/8B,3/8] [^c/4^f/4^C/4] z3/8 [^c3/8^f3/8] ^d3/8
[^d/4^f/4] [^c3/8^f3/8] ^d3/8 [^d3/8^f3/8] [^c/4^f/4] [^d3/8^f3/8]
[^d3/8^f3/8] [^c5/8^f5/8z3/8] [^d/4^D/4] [B3/8b3/8^d3/8^f3/8B,3/8]
[B3/8b3/8^d3/8^f3/8B,3/8] [B3/8b3/8^d3/8^f3/8B,3/8] [^c/4^f/4^C/4]
z3/8 [^c3/8^f3/8] ^d/4 z/8 [^d/4^f/4] [^c3/8^f3/8] ^d3/8 [^d/4^f/4]
z/8 [^c/4^f/4] [^d3/8^f3/8] [^d3/8^f3/8] [^c5/8^f5/8z/4] ^C3/8
[^c39/8^f39/8^F,3/8] ^C3/8 ^F/4 ^F,3/8 ^C3/8 ^F5/8 ^F,3/4 ^C3/8 ^D/4
^F,3/8 ^C3/8 ^D5/8 [^a3/4^f3/4^F,3/4] [^c3/8^g3/8^C3/8]
[^f5/8^a5/8^F/4] ^F,3/8 [^f3/8^a3/8^C3/8] [^c3/8^g3/8^F5/8]
[^a5/8^f5/8z/4] [^F,3/4z3/8] [^c^gz3/8] ^C/4 z/8 ^D/4
[^a11/8^f11/8^F,3/8] ^C3/8 ^D5/8 [^a3/4^f3/4^F,3/4] [^c/4^g/4^C/4]
[^f3/4^a3/4^F3/8] ^F,3/8 [^f27/8^a27/8^C3/8] ^F5/8 ^F,3/4 ^C/4 ^D3/8
^F,3/8 ^C3/8 ^D5/8 [^a3/4^f3/4^F,3/4] [^c/4^g/4^C/4]
[^f3/4^a3/4^F3/8] ^F,3/8 [^f3/8^a3/8^C3/8] [^c/4^g/4^F5/8]
[^a3/4^f3/4z3/8] [^F,3/4z3/8] [^c^gz3/8] ^C/4 ^D3/8
[^a11/8^f11/8^F,3/8] ^C/4 z/8 ^D5/8 [^c11/8^f11/8A,5/8] z/8 E/4 A3/8
[^c3/8^g3/8A,3/8] [^c27/8^g27/8E/4] A3/4 A,5/8 E3/8 ^F3/8 A,3/8 E/4
^F3/4 [^a11/8^f11/8^F,5/8] ^C3/8 ^F3/8 [^c3/8^g3/8^F,3/8]
[^c27/8^g27/8^C/4] ^F3/4 ^F,5/8 ^C3/8 ^D3/8 ^F,3/8 ^C/4 ^D3/4
[^c11/8^f11/8A,5/8] E3/8 A3/8 [^c/4^g/4A,/4] z/8 [^c27/8^g27/8E/4]
A3/4 A,5/8 E3/8 ^F3/8 A,/4 E3/8 ^F3/4 [^a11/8^f11/8^F,5/8] ^C3/8
^F3/8 [^c/4^g/4^F,/4] [^c33/8^g33/8^C3/8] ^F3/4 ^F,5/8 ^C3/8 ^D3/8
^F,/4 ^C3/8 ^D3/4 ^F,/4 z11/8 [^c3/4z/2] [^f/4c'/4e/4] [^c5/8z3/8]
[=f/4b/4^d/4] [f3/4^C3/4] [f3/8=F5/8] [f/4b/4^d/4] [^c/2^F3/4] ^g/4
[f3/8G5/8] [f/4b/4^d/4] [^g/2^G3/4] [b/4^d/4f/4] [A5/8z3/8]
[f/4b/4^d/4^c/4] [f/2^A3/4] ^c/4 ^c3/8 [^d/4=a/4^c/4] [^d3/4B3/4]
[^d3/8B5/8] [^d/4a/4^c/4] [b/2=A3/4] ^f/4 ^G5/8 [^d3/4a3/4^c3/4^F3/4]
[^G5/8z3/8] [^d/4a/4^c/4^a/4] [^c/4^D5/8] =d/4 ^d/8 z/8 [e/8B,5/8]
=f/4 [=d/4^g/4c'/4^a/4] [^c/4^A,5/8] [d7/8z/2] [^A,5/8z3/8]
[d/4^g/4c'/4] [^d/2=D5/8] ^a/8 [^f3/4^A,3/4z/2] [^d/4=a/4^c/4]
[b5/8B,5/8] [^g/2^D3/4] a/4 [^g/2^F5/8] [^c/8^d/8a/8^f/8] [=f/2B3/4]
[^d/4f/4b/4^g/4] [^c5/8z/2] [f3/8z/8] [=c3/4z/4] [^c/2z/4]
[^d/4f/4b/4] [f/2B5/8] [^d/8f7/8b/8] ^A3/4 [^f5/8c'5/8e5/8=A5/8]
[^G3/4z/2] [^f/4c'/4e/4] [^d/4^g11/8^F5/8] e/8
[^f3/4c'3/4e3/4=f3/4z/4] [=F3/4z/2] [f/4b/4^d/4] [f5/8^g5/8^C5/8]
[^d/2^g3/4^D3/4] [f/4b/4^d/4] [^d/4^g11/8F5/8] e/8 [f3/4z/4]
[^C3/4z/2] [f/4b/4^d/4] [f5/8^g5/8^D5/8] [^d/2^g/2=C3/4] [^d/4^g5/8]
[e/4^C5/8] f/8 [f/4b/4^d/4] [^c/2=D3/4] [^d/4a/4^c/4b/4] [^g3/8B,5/8]
a/4 [^g/2^D3/4] [^d/4a/4^c/4^f/4] [^c/8E5/8] ^a/4 [^f3/4z/4]
[F3/4z/2] [^d/4=a/4^c/4b/4] [^F5/8z/8] ^f/4 b/4 [^d/4=G3/4] ^f/4 b/4
[^d/8^G5/8] b/4 [^d/4a/4^c/4^f/4] [^d/4A3/4] =d/8 [^d/4z/8]
[=d/4^g/4c'/4z/8] e/8 [=f3/8^A5/8] ^c/4 [=F5/8z/2] [^c/8f7/8] z/8
[d3/8^A,5/8] [d/4^g/4c'/4] [^a/2^F5/8] [^d/8=a/8^c/8^f/8] z/8
[^d5/8B5/8] [^d/2^F5/8] ^c/8 [b/2B,3/4] [^d/4a/4^c/4^f/4] [c'/2=G5/8]
[e/8^a/8=d/8] [=g3/4=c3/4] [e/2G5/8] c'/8 [g/2=C3/4] [e/4^a/4d/4^g/4]
[^c/2^G5/8] [=f/8b/8^d/8] [^d/2^c/2] ^c/4 [^g3/8^G5/8] z/8
[f/8b/8^d/8] [^c/2^C3/4] ^g/4 [f5/8^G3/8] ^C/4 [^a3/8^f3/8^F,3/8]
[^c3/8^g3/8^C3/8] [^f5/8^a5/8^F3/8] ^F,/4 [^f3/8^a3/8^C3/8]
[^c3/8^g3/8^F5/8] [^a5/8^f5/8z3/8] [^F,5/8z/4] [^c^gz3/8] ^C3/8 ^D/4
z/8 [^a5/4^f5/4^F,/4] ^C3/8 ^D5/8 [^a3/4^f3/4^F,3/4]
[^c3/8^g3/8^C3/8] [^f5/8^a5/8^F/4] ^F,3/8 [^f7/2^a7/2^C3/8] ^F5/8
^F,3/4 ^C3/8 ^D/4 ^F,3/8 ^C3/8 ^D5/8 [^a3/4^f3/4^F,3/4]
[^c3/8^g3/8^C3/8] [^f5/8^a5/8^F/4] ^F,3/8 [^f3/8^a3/8^C3/8]
[^c3/8^g3/8^F5/8] [^a5/8^f5/8z/4] [^F,3/4z3/8] [^c^gz3/8] ^C/4 z/8
^D/4 [^a11/8^f11/8^F,3/8] ^C3/8 ^D5/8 [^c11/8^f11/8=A,3/4] E/4 =A3/8
[^c3/8^g3/8A,3/8] [^c27/8^g27/8E3/8] A5/8 A,3/4 E/4 ^F3/8 A,3/8 E3/8
^F5/8 [^a11/8^f11/8^F,3/4] ^C/4 ^F3/8 [^c3/8^g3/8^F,3/8]
[^c27/8^g27/8^C3/8] ^F5/8 ^F,3/4 ^C/4 ^D3/8 ^F,3/8 ^C/4 z/8 ^D5/8
[^c11/8^f11/8A,5/8] z/8 E/4 A3/8 [^c3/8^g3/8A,3/8] [^c27/8^g27/8E/4]
A3/4 A,5/8 E3/8 ^F3/8 A,3/8 E/4 ^F3/4 [^a11/8^f11/8^F,5/8] ^C3/8
^F3/8 [^c3/8^g3/8^F,3/8] [^c4^g4^C/4] ^F3/4 ^F,5/8 ^C3/8 ^D3/8 ^F,3/8
^C/4 ^D3/4 ^F,5/8 ^C3/8 ^F3/8 ^F,/4 z/8 ^C/4 ^F3/4 ^F,5/8 ^C3/8 ^D3/8
^F,/4 ^C3/8 ^D3/4 ^F,5/8 ^C3/8 ^F3/8 ^F,/4 ^C3/8 ^F3/4 ^F,5/8 ^C3/8
^D3/8 ^F,/4 ^C3/8 ^D3/4 ^F,/4 z3/8 [^A^f3/8] [^c5/8^g/4] z/8
[^a/4^f/4] [^a3/4^f3/8] [^c5/8^g3/8] [^a/4^f/4] z/8 [^a/4^f/4]
[^g3/8^c3/8] [b^f3/8] ^c/4 ^a3/8 [^f3/4^a3/4^c3/4] [^c/4^g/4]
[^a3/8^f3/8^C3/8] [^c^g^F,3/8] ^C3/8 ^F/4 [^a33/8^f33/8^F,3/8] ^C3/8
^F5/8 ^F,3/4 ^C3/8 ^D/4 ^F,3/8 ^C3/8 ^D5/8 [^c11/8^g11/8^F,3/4] ^C3/8
^F/4 [^a33/8^f33/8^F,3/8] ^C3/8 ^F5/8 ^F,3/4 ^C/4 z/8 ^D/4 ^F,3/8
^C3/8 ^D5/8 [^c11/8^g11/8^F,3/4] ^C/4 ^F3/8 [^f9/2^a9/2^F,3/8] ^C3/8
^F5/8 ^F,3/4 ^C/4 ^D3/8 ^F,3/8 ^C3/8 ^D5/8 ^F,29/4
L:1/4
C:John Coltrane
Q:1/4=200
%%staves (chords melody)
K:Cm
%%text (medium up)
%%vskip 20
P:A
V:chords
"Gm7b5"x2 "Ab7"x2 | "Db6"x2 "E7"x2 | "Amaj7"x2 "C7"x2 | "Fm6"x2 x2 |
"Dm7b5"x2 "Eb7"x2 | "Ab6"x2 "B7"x2 | "Emaj7"x2 "G7"x2 | "Cmaj7"x2 !fine!x2 :|
V:melody
F2_G2 | f2=e2 | =e2_d>c- | c4 |
C2_D2 | c2=B2 | =B2_A>G- | G4 :|
P:B
V:chords
"Cm7"x2 "Db7"x2 | "Gb6"x2 "A7"x2 | "Dmaj7"x2 "F7"x2 | "Bbmaj7"x2 x2 |
"Ebm7"x2 x2 | "Ab7"x2 x2 | "Dm7"x2 x2 | "G7"x2 !D.C.!x2 ||
V:melody
B2_c2 | b2=a2 | =a2_g>f- | f4 |
z>b-b2 |a/b/a/f/-f e/f/ | z>=a-a2 | g/=a/g/e/ de ||
